public/style/workarea/images/icons/exe-concurrent-users-icon.svg

<svg fill="none" height="22" viewBox="0 0 22 22" width="22" xmlns="http://www.w3.org/2000/svg"><g stroke="#6b7280" stroke-linecap="round" stroke-linejoin="round" stroke-width="1.8"><path d="m21.0833 19.25v-1.8334c-.0007-.8124-.2711-1.6016-.7688-2.2437s-1.1946-1.1007-1.9812-1.3038"/><path d="m15.5834 19.25v-1.8333c0-.9725-.3863-1.9051-1.0739-2.5928-.6877-.6876-1.6203-1.0739-2.5928-1.0739h-7.33329c-.97246 0-1.90509.3863-2.59272 1.0739-.68763.6877-1.073942 1.6203-1.073942 2.5928v1.8333"/><path d="m14.6667 2.86914c.7888.20194 1.4878.66064 1.9871 1.30379.4992.64314.7701 1.43414.7701 2.24829 0 .81416-.2709 1.60516-.7701 2.2483-.4993.64314-1.1983 1.10184-1.9871 1.30379"/><path d="m8.24992 10.0833c2.02508 0 3.66668-1.64159 3.66668-3.66663 0-2.02505-1.6416-3.66667-3.66668-3.66667-2.02505 0-3.66667 1.64162-3.66667 3.66667 0 2.02504 1.64162 3.66663 3.66667 3.66663z"/></g></svg>

<svg width="22" height="22" viewBox="0 0 22 22" fill="none" xmlns="http://www.w3.org/2000/svg">
    <path d="M21.0833 19.25V17.4166C21.0826 16.6042 20.8122 15.815 20.3145 15.1729C19.8168 14.5308 19.1199 14.0722 18.3333 13.8691" stroke="#6B7280" stroke-width="1.8" stroke-linecap="round" stroke-linejoin="round"/>
    <path d="M15.5834 19.25V17.4167C15.5834 16.4442 15.1971 15.5116 14.5095 14.8239C13.8218 14.1363 12.8892 13.75 11.9167 13.75H4.58341C3.61095 13.75 2.67832 14.1363 1.99069 14.8239C1.30306 15.5116 0.916748 16.4442 0.916748 17.4167V19.25" stroke="#6B7280" stroke-width="1.8" stroke-linecap="round" stroke-linejoin="round"/>
    <path d="M14.6667 2.86914C15.4555 3.07108 16.1545 3.52978 16.6538 4.17293C17.153 4.81607 17.4239 5.60707 17.4239 6.42122C17.4239 7.23538 17.153 8.02638 16.6538 8.66952C16.1545 9.31266 15.4555 9.77136 14.6667 9.97331" stroke="#6B7280" stroke-width="1.8" stroke-linecap="round" stroke-linejoin="round"/>
    <path d="M8.24992 10.0833C10.275 10.0833 11.9166 8.44171 11.9166 6.41667C11.9166 4.39162 10.275 2.75 8.24992 2.75C6.22487 2.75 4.58325 4.39162 4.58325 6.41667C4.58325 8.44171 6.22487 10.0833 8.24992 10.0833Z" stroke="#6B7280" stroke-width="1.8" stroke-linecap="round" stroke-linejoin="round"/>
</svg>
